X:232
T:Steirische Jodler und Taenze Nr. 1 - 48 (30.)
C:traditionell
A:Salzkammergut
S:MIDI erhalten von Christian Amon. Nach einer kopie im besitz von Johann Stoeckl eines manuscriptes. Stoeckl(zitiert von Amon): "diese sammlung wurde 1935 im hause der familie Hohenlohe-Schillingfuerst gefunden. Sie wurde von einem der beiden brueder Steinegger 1866 verfasst. Die originale sind im Ausseer Kammerhofmuseum".
M:3/4
L:1/8
K:G
V:1
g>f a>g b>a | c'>b g>d B2 | d>a f>d A2 | d>b g>d B2 |\
g>f a>g b>a | c'>b g>d B2 | d>a f>d A>f | g4 z2 |*
V:2
b>a c'>b d'>c' | e'>d' b>g d2 | f>c' a>f d2 | g>d' b>g d2 |\
b>a c'>b d'>c' | e'>d' b>g d2 | f>c' a>f d>a | b4 z2 |*
